X: 1
T: Herz Siebner
M: 34/44
L: 1/8
K: Ab
[Ec][DB] \
| "Ab"[C4A4] [E2c2] | "Eb7"[B,4G4] [E2G2] \
| "Ab"[C4E4] [B,2D2] | [A,6C6] \
| "Eb7"[B,3D3][CE][D2F2] | [C4E4][B,2D2] \
| "Ab"[A,6-C6-] | [A,4C4] [CA][DB] |
| "Ab"[E2c2][C2A2] [E2c2][C2A2] | "Eb7"[E2c2][D2B2] [B,4G4] \
| [Ed][Ed] [E2d2] [G2e2] | "Ab"[Ec][Ec][E2c2] [A2c2] \
| "Ab"[E2c2][C2A2] [E2c2][C2A2] | "Eb7"[E2c2][D2B2] [B,4G4] \
| [Ed][Ed] [E2d2] [G2e2] | "Ab"[A2c2] z2 :|
